X:1
T:my heart will go on
M:4/4
L:1/8
V:1
Q:1/4=140
K:C
|"C"C3CC2C2|"G"B,2C4zC|"F"B,2C4zD|"Am"E2D2D4|
|"C"C3CC2C2|"G"B,2C4zC|"F"G,8-|G,4z4|
|"C"C3CC2C2|"G"B,2C4zC|"F"B,2C4zD|"Am"E2D2D4|
|"C"C3CC2C2|"G"B,2C4zC|"F"G,8-|G,4z4|
|"C"C8|"G"D6G,2|"F"G3FFEED-|"G"D4E2F2|
|"Am"E4DCC2|"G"B,2C4zC|"F"A,8|"G"G,6z2|
|"Am"C8|"G"C/2D3/2-D4G,G,|"F"G3FFEED-|
|"G"D4E2F2|"Am"E4D2C2|"G"B,2C4zB,|"F"B,C-C2CE3|"G"E2D4C2|"C"C8|